X: 35980
T: Saratoga, The
R: hornpipe
M: 4/4
K: Gmajor
d>^cd>B e>=cg>e|d>BG>B d>Be>d|c>B (3ABc B>AG>B|A>d^c>e d2 (3AB=c|
d>^cd>B e>=cg>e|d>BG>B d>ef>g|e>fg>a f>ga>b|g2 b2 g2:|
b>Ba>B g>Bf>B|g>Bf>B e>Bg>B|f>B^d>f b>ag>f|g>af>g e>fg>a|
b>Ba>B g>B f2|g>Bf>B e>B g2|f>ga>b c'>a (3fga|g2 b2 g2:|
d^cdB e=cge|dBGB dBed|cBAc BAGB|Ad^ce d2 B=c|
d^cdB e=cge|dBGB defg|efga fgab|g2 b2 g2:|
bBaB gBfB|gBfB eBgB|fB^df bagf|gafg efga|
bBaB gB f2|gBfB eB g2|fgab c'afa|g2 b2 g2:|

